public/cards/3-D.svg

<?xml version="1.0" encoding="UTF-8"?>
<svg width="360px" height="540px" viewBox="0 0 360 540" version="1.1" xmlns="http://www.w3.org/2000/svg" xmlns:xlink="http://www.w3.org/1999/xlink">
    <!-- Generator: Sketch 55.2 (78181) - https://sketchapp.com -->
    <title>3-D</title>
    <desc>Created with Sketch.</desc>
    <g id="Page-1" stroke="none" stroke-width="1" fill="none" fill-rule="evenodd">
        <g id="English_pattern_playing_cards_deck" transform="translate(-780.000000, -1141.000000)" fill-rule="nonzero">
            <g id="3-D" transform="translate(780.000000, 1140.637820)">
                <rect id="rect6472-03" stroke="#000000" stroke-width="0.99999976" fill="#FFFFFF" x="0.5" y="0.86218" width="359" height="539" rx="29.944447"></rect>
                <path d="M30,30.36208 C24.46,30.36208 20,34.82208 20,40.36208 L20,45.36208 L25,45.36208 L25,40.36208 C25,37.59208 27.23,35.36208 30,35.36208 C32.77,35.36208 35,37.59208 35,40.36208 L35,45.36208 C35,48.13208 32.77,50.36208 30,50.36208 L25,50.36208 L25,55.36208 L30,55.36208 C32.77,55.36208 35,57.59208 35,60.36208 L35,70.36208 C35,73.13208 32.77,75.36208 30,75.36208 C27.23,75.36208 25,73.13208 25,70.36208 L25,65.36208 L20,65.36208 L20,70.36208 C20,75.90208 24.46,80.36208 30,80.36208 C35.54,80.36208 40,75.90208 40,70.36208 L40,60.36208 C40,57.35848 38.67705,54.69208 36.59375,52.86208 C38.67705,51.03208 40,48.36568 40,45.36208 L40,40.36208 C40,34.82208 35.54,30.36208 30,30.36208 Z" id="rect3163-5-1-4-3-4-0-8" fill="#FF5555"></path>
                <path d="M330,510.3622 C335.54,510.3622 340,505.9022 340,500.3622 L340,495.3622 L335,495.3622 L335,500.3622 C335,503.1322 332.77,505.3622 330,505.3622 C327.23,505.3622 325,503.1322 325,500.3622 L325,495.3622 C325,492.5922 327.23,490.3622 330,490.3622 L335,490.3622 L335,485.36218 L330,485.36218 C327.23,485.36218 325,483.13218 325,480.36216 L325,470.36216 C325,467.59216 327.23,465.36216 330,465.36216 C332.77,465.36216 335,467.59216 335,470.36216 L335,475.36216 L340,475.36216 L340,470.36216 C340,464.82216 335.54,460.36216 330,460.36216 C324.46,460.36216 320,464.82216 320,470.36216 L320,480.36216 C320,483.36578 321.32295,486.03218 323.40625,487.8622 C321.32295,489.6922 320,492.3586 320,495.3622 L320,500.3622 C320,505.9022 324.46,510.3622 330,510.3622 L330,510.3622 Z" id="rect3163-5-1-4-3-4-0-4-2" fill="#FF5555"></path>
                <path d="M30,90.36218 C30,90.36218 33,97.86218 36.5,102.86218 C40,107.86218 45,112.86218 45,112.86218 C45,112.86218 40,117.86218 36.5,122.86218 C33,127.86218 30,135.36218 30,135.36218 C30,135.36218 27,127.86218 23.5,122.86218 C20,117.86218 15,112.86218 15,112.86218 C15,112.86218 20,107.86218 23.5,102.86218 C27,97.86218 30,90.36218 30,90.36218" id="path3204-24-1-52" fill="#FF5555"></path>
                <path d="M330,405.36218 C330,405.36218 333,412.86218 336.5,417.86218 C340,422.86218 345,427.86218 345,427.86218 C345,427.86218 340,432.86218 336.5,437.86218 C333,442.86218 330,450.36218 330,450.36218 C330,450.36218 327,442.86218 323.5,437.86218 C320,432.86218 315,427.86218 315,427.86218 C315,427.86218 320,422.86218 323.5,417.86218 C327,412.86218 330,405.36218 330,405.36218" id="path3204-24-1-1-0" fill="#FF5555"></path>
                <path d="M180,45.36218 C180,45.36218 186,60.36218 193,70.36218 C200,80.36218 210,90.36218 210,90.36218 C210,90.36218 200,100.36218 193,110.36218 C186,120.36218 180,135.36218 180,135.36218 C180,135.36218 174,120.36218 167,110.36218 C160,100.36218 150,90.36218 150,90.36218 C150,90.36218 160,80.36218 167,70.36218 C174,60.36218 180,45.36218 180,45.36218" id="path3204-24-4-3" fill="#FF5555"></path>
                <path d="M180,225.36218 C180,225.36218 186,240.36218 193,250.36218 C200,260.36218 210,270.36218 210,270.36218 C210,270.36218 200,280.36218 193,290.36218 C186,300.36218 180,315.36218 180,315.36218 C180,315.36218 174,300.36218 167,290.36218 C160,280.36218 150,270.36218 150,270.36218 C150,270.36218 160,260.36218 167,250.36218 C174,240.36218 180,225.36218 180,225.36218" id="path3204-24-72" fill="#FF5555"></path>
                <path d="M180,405.36218 C180,405.36218 186,420.36218 193,430.36218 C200,440.36218 210,450.36218 210,450.36218 C210,450.36218 200,460.36218 193,470.36218 C186,480.36218 180,495.3622 180,495.3622 C180,495.3622 174,480.36218 167,470.36218 C160,460.36218 150,450.36218 150,450.36218 C150,450.36218 160,440.36218 167,430.36218 C174,420.36218 180,405.36218 180,405.36218" id="path3204-24-0-97" fill="#FF5555"></path>
            </g>
        </g>
    </g>
</svg>

<svg width="360" height="540" xmlns="http://www.w3.org/2000/svg"><g transform="translate(0 -.362)" fill-rule="nonzero" fill="none"><rect stroke="#000" fill="#FFF" x=".5" y=".862" width="359" height="539" rx="29.944"/><path d="M30 30.362c-5.54 0-10 4.46-10 10v5h5v-5c0-2.77 2.23-5 5-5s5 2.23 5 5v5c0 2.77-2.23 5-5 5h-5v5h5c2.77 0 5 2.23 5 5v10c0 2.77-2.23 5-5 5s-5-2.23-5-5v-5h-5v5c0 5.54 4.46 10 10 10s10-4.46 10-10v-10c0-3.004-1.323-5.67-3.406-7.5 2.083-1.83 3.406-4.496 3.406-7.5v-5c0-5.54-4.46-10-10-10zM330 510.362c5.54 0 10-4.46 10-10v-5h-5v5c0 2.77-2.23 5-5 5s-5-2.23-5-5v-5c0-2.77 2.23-5 5-5h5v-5h-5c-2.77 0-5-2.23-5-5v-10c0-2.77 2.23-5 5-5s5 2.23 5 5v5h5v-5c0-5.54-4.46-10-10-10s-10 4.46-10 10v10c0 3.004 1.323 5.67 3.406 7.5-2.083 1.83-3.406 4.497-3.406 7.5v5c0 5.54 4.46 10 10 10zM30 90.362s3 7.5 6.5 12.5 8.5 10 8.5 10-5 5-8.5 10-6.5 12.5-6.5 12.5-3-7.5-6.5-12.5-8.5-10-8.5-10 5-5 8.5-10 6.5-12.5 6.5-12.5M330 405.362s3 7.5 6.5 12.5 8.5 10 8.5 10-5 5-8.5 10-6.5 12.5-6.5 12.5-3-7.5-6.5-12.5-8.5-10-8.5-10 5-5 8.5-10 6.5-12.5 6.5-12.5M180 45.362s6 15 13 25 17 20 17 20-10 10-17 20-13 25-13 25-6-15-13-25-17-20-17-20 10-10 17-20 13-25 13-25M180 225.362s6 15 13 25 17 20 17 20-10 10-17 20-13 25-13 25-6-15-13-25-17-20-17-20 10-10 17-20 13-25 13-25M180 405.362s6 15 13 25 17 20 17 20-10 10-17 20-13 25-13 25-6-15-13-25-17-20-17-20 10-10 17-20 13-25 13-25" fill="#F55"/></g></svg>
